X:38
T:Breakdown
M:2/4
L:1/16
Z: Jason R. Fruit <Jason R. Fruit@big-mac>
N: Bill Driver's playing. A favorite of his for dances.
K:A
A,A, | [EA,]2[AE]2 [EC]2[AE]2 | A2AA e4 & A2AA ABcA | [BE]2[eB]2 [BG]2[eB]2 | [ee]2eg fecA |
[EA,]2[AE]2 [EC]2[AE]2 | A2AA e4 & A2AA cAcA | [BE]2[eB]2 [BG]2[eB]2 | [eA]2[eA][ec] [eA]2 :|
|: cd | egab a2af | efae fecA | B2gf g2(3(fgf) | efge fecd |
egab a3f | efag fecA | B2g2 gfed | cABG A2 :|

